T: Teelin, The
M: 4/4
L: 1/8
K: Amix
a2 eg fefa | gedB A2 |||: A>G | (3Bcd eg fdeA | ~(3aaa e>g f>^e (3fga | g<ed>B A2 ||
